X: 30
T:The Blue Idol
S:Altan - The Blue Idol Track 2
M:6/8
F:http://blackrosetheband.googlepages.com/ABCTUNES.ABC May 2009
R:jig
K:ADor
e2A ABA | gab age | d2B BAB | g2e a2g |
e2A ABA | gab age | dBB gBB |1 ABA Aag :|2 ABA Aga||
b2a agf | gab age | d2B BAB | g2e fga |
b2a agf | gab age | dBB gBB | ABA Aga |
b2a agf | gab age | d2B BAB | g2e a2g |
e2A ABA | gab age | dBB gBB | ABA Aag ||

